fs/call_end_28_filled.svg

<svg viewBox="0 0 28 28" fill="none" xmlns="http://www.w3.org/2000/svg" height="1em" width="1em">
  <path d="M16.8572 13.3616L17.5629 16.8896C17.745 17.8006 18.4684 18.5059 19.3836 18.6651L22.2556 19.1646C23.6945 19.4148 25.078 18.4967 25.4064 17.0736L25.7839 15.4378C26.2688 13.3366 25.4009 11.032 23.247 10.1877C21.1403 9.36202 17.9671 8.48716 13.9974 8.50014C10.0496 8.51305 6.89026 9.37732 4.78509 10.1917C2.61591 11.0309 1.73303 13.3462 2.22115 15.4614L2.59321 17.0736C2.9216 18.4967 4.30511 19.4148 5.74397 19.1646L8.61597 18.6651C9.53123 18.5059 10.2546 17.8006 10.4368 16.8896L11.1424 13.3616C11.3045 13.324 11.5051 13.2805 11.7339 13.2369C12.3653 13.1166 13.1896 13.0002 13.9998 13.0002C14.81 13.0002 15.6343 13.1166 16.2657 13.2369C16.4945 13.2805 16.6952 13.324 16.8572 13.3616Z" fill="#212121"/>
</svg>

<svg viewBox="0 0 28 28" fill="none" xmlns="http://www.w3.org/2000/svg" height="1em" width="1em">
  <path d="m16.857 13.362.706 3.528a2.25 2.25 0 0 0 1.82 1.775l2.873.5a2.75 2.75 0 0 0 3.15-2.091l.378-1.636c.485-2.101-.383-4.406-2.537-5.25-2.107-.826-5.28-1.7-9.25-1.688-3.947.013-7.107.877-9.212 1.692-2.17.839-3.052 3.154-2.564 5.27l.372 1.612a2.75 2.75 0 0 0 3.151 2.09l2.872-.499a2.25 2.25 0 0 0 1.82-1.775l.706-3.528c.163-.038.363-.082.592-.125C12.365 13.117 13.19 13 14 13s1.634.117 2.266.237c.229.043.43.087.591.125Z" fill="#212121"/>
</svg>
